X:21
T:Mon père a tué le loup
R:Ronde
C:Recueillie par Madame Messager,
C:à Saint-Léonard de Wains (Avranchin)
A:Normandie
O:France
Z:Transcrit et/ou corrigé par Michel BELLON - 2006-05-25
Z:Pour toute observation mailto:galouvielle@free.fr
M:6/8
L:1/8
Q:110
K:G
z3 [P:A]G2A|B2c B2A|G3 B2c|d2 d B2c|!breath!d3 GGA|B2 c B2A|!
w:Mon pèr' a tu-é le loup Mon pèr' a tu-é le loup a-vec son grand be-zi be-
G3 BBc|d2 d B2c|d3-d2Hz|[P:B]d2 d d2 d|dcB c2-c|A2B c2c|!
w:zou A-vec son grand pas-se par-tout_ Ah~! Dan-sons en-core un pe-tit_ Ce gen-til pe-
cBA B2!breath!G|B2c d2d|dcB c3|ABc d3|cBA G3||
w:tit pe-tit bran-le Ah~! Dan-sons en-core un pe-tit Ce pe-tit bran-le si jo-li.

%%footer $D   Galouvielle-MBe 2006 \nRonde (France)
